public/svg/about-us/build.svg

<svg width="42" height="47" fill="none" xmlns="http://www.w3.org/2000/svg"><path d="M4 16v8.5m0 0h11m-11 0v10.25M15 24.5V16m0 8.5v10.25m0-10.25L4 34.75M15 45V34.75m0 0H4m11 0L4 45V34.75M6 6l-4 4h6.25M6 6h5M6 6l2.25 4M26 6l3.5 4h-7M26 6l-3.5 4M26 6h-8m4.5 4L18 6m4.5 4h-8M18 6l-3.5 4M18 6h-7m3.5 4L11 6m3.5 4H8.25M11 6l-2.75 4m14.5.75h9.5v6.5h-9.5zm14-4h4.5v6.5h-4.5zM30 1v9.5h2.5L30 1z" stroke="#fff" stroke-width="1.5"/><path d="M32 10.5h4.5v-4H32M25.5 18v5m0 22h5v-5.5m-5 5.5v-7.5m0 7.5l5-5.5m-5-16.5l5-5v8m-5-3v7m5-4l-5 4m5-4v8m-5-4v7.5m5-3.5l-5 3.5m5-3.5v5.5m9 5.5H0m15-18h4m-4 3h4m-4 3h4m-4 3h4m-4 3h4m-4 3h4" stroke="#fff" stroke-width="1.5"/></svg>

<svg width="42" height="47" viewBox="0 0 42 47" fill="none" xmlns="http://www.w3.org/2000/svg">
<path d="M4 16V24.5M4 24.5H15M4 24.5V34.75M15 24.5V16M15 24.5V34.75M15 24.5L4 34.75M15 45V34.75M15 34.75H4M15 34.75L4 45V34.75" stroke="white" stroke-width="1.5"/>
<path d="M6 6L2 10H8.25M6 6H11M6 6L8.25 10M26 6L29.5 10H22.5M26 6L22.5 10M26 6H18M22.5 10L18 6M22.5 10H14.5M18 6L14.5 10M18 6H11M14.5 10L11 6M14.5 10H8.25M11 6L8.25 10" stroke="white" stroke-width="1.5"/>
<rect x="22.75" y="10.75" width="9.5" height="6.5" stroke="white" stroke-width="1.5"/>
<rect x="36.75" y="6.75" width="4.5" height="6.5" stroke="white" stroke-width="1.5"/>
<path d="M30 1V10.5H32.5L30 1Z" stroke="white" stroke-width="1.5"/>
<path d="M32 10.5H36.5V6.5H32" stroke="white" stroke-width="1.5"/>
<path d="M25.5 18V23M25.5 45H30.5V39.5M25.5 45V37.5M25.5 45L30.5 39.5M25.5 23L30.5 18V26M25.5 23V30M30.5 26L25.5 30M30.5 26V34M25.5 30V37.5M30.5 34L25.5 37.5M30.5 34V39.5" stroke="white" stroke-width="1.5"/>
<path d="M39.5 45H0" stroke="white" stroke-width="1.5"/>
<path d="M15 27H19" stroke="white" stroke-width="1.5"/>
<path d="M15 30H19" stroke="white" stroke-width="1.5"/>
<path d="M15 33H19" stroke="white" stroke-width="1.5"/>
<path d="M15 36H19" stroke="white" stroke-width="1.5"/>
<path d="M15 39H19" stroke="white" stroke-width="1.5"/>
<path d="M15 42H19" stroke="white" stroke-width="1.5"/>
</svg>
